X:1
T:Awful Majesty, CM
T:Folk Hymn, 1813
T:Awful Majesty, CM
T:Public Domain
C:Folk Hymn, 1813
Z:Public Domain
%%score ( 1 2 ) ( 3 4 )
L:1/8
M:3/2
K:F
V:1 treble 
V:2 treble 
V:3 bass 
V:4 bass 
V:1
 [CF]4 | [FA]2 [Ac]2 [FA]4 ([EG]3 F) | D2 [CF]2 [CF]4 [Fc]4 | [Af]2 [ce]2 [Bd]4 ([Ac]2 [FA]2) | %4
 [Ec]8 (c2 de) | [Df]2 [Ee]2 [Dd]4 [Fc]4 | ([Gd][Fc])([EA][DG]) [CF]4 F4 | %7
 [FA]2 [Cc]2 [CA]4 [CG]4 | [CF]8 |] %9
V:2
 x4 | x11 F | D2 x10 | x12 | x8 C4 | x12 | x8 F4 | x12 | x8 |] %9
V:3
 F,4 | [D,F,]2 [C,F,]2 [D,A,]4 [C,C]4 | [F,A,]2 [C,C]2 [F,,C]4 [F,A,]4 | [F,C]2 A,2 G,4 F,4 | %4
 [C,G,]8 [F,A,]4 | [D,F,]2 [C,A,]2 [D,G,]4 [F,A,]4 | [B,,D]2 [B,,C]2 [F,C]4 (A,2 D2) | %7
 [D,A,]2 [E,G,]2 F,4 [C,G,]4 | [F,,F,A,]8 |] %9
V:4
 F,4 | x12 | x12 | x2 A,2 G,4 F,4 | x12 | x12 | x8 F,4 | x4 F,4 x4 | x8 |] %9

